X: 0
T: Johnny Pringle, or Miss Jane Stewart
M: C
C: William Marshall (Scottish)
L: 1/16
R: strathspey
K: G
"Em"DG3 G3g "G"dG3B4|"G"DG3 G3g "D"dG3Bg3|"Em"DG3G3B "G"dG3B4|"C"c3AB3G "D"A3GEA3:|
"G"Gg3g3a "Am"(ba).g.f ~"D"g4|"C"e3f"Am"g3a "G"b3gab3|"C"e3f"Am"g3e "D"dB3B3d|"G"eg3d3B "D"cBAG EA3|
"G"Gg3g3a "Am"(ba).g.f "D"g4|"C"e3f"Am"g3a "G"bg3ab3|"C"e3f (agfe) "D"dB3B3d|"G"eg3d3B "D"cBAG "G"E2A2||